X: 19499
T: Jackson's Wallop The Spot
R: jig
M: 6/8
K: Dmajor
|:~F3 DFA|BAF d2A|~F3 DFA|BAF AFE|
~F3 DFA|BAF d2e|fed edB|BAF AFE:|
|:B=cd eAA|fed eAA|B=cd edB|BAF AFE|
B=cd ~e3|fed efg|age edB|BAF AFE:|
|:DFA ~d3|edc dAF|DFA d2A|BAF AFE|
DFA ~d3|edc d2e|fed edB|BAF AFE:|

